X: 42366
T: Welcome To The Piper
R: slip jig
M: 9/8
K: Amixolydian
|:fed ded dAd|fed dAd efg|fed ded dAd|gec cec efg:|
|:aAa fdd fdd|a2 a fdd efg|aa/a/a fdd fdd|gec cec efg:|

